images/3032576.svg

<?xml version="1.0" encoding="UTF-8"?>
<svg xmlns="http://www.w3.org/2000/svg" xmlns:xlink="http://www.w3.org/1999/xlink" width="300pt" height="300pt" viewBox="0 0 300 300" version="1.1">
<defs>
<g>
<symbol overflow="visible" id="glyph0-0">
<path style="stroke:none;" d="M 0.59375 2.125 L 0.59375 -8.46875 L 6.59375 -8.46875 L 6.59375 2.125 Z M 1.265625 1.453125 L 5.9375 1.453125 L 5.9375 -7.78125 L 1.265625 -7.78125 Z M 1.265625 1.453125 "/>
</symbol>
<symbol overflow="visible" id="glyph0-1">
<path style="stroke:none;" d="M 4.734375 -7.953125 C 3.867188 -7.953125 3.179688 -7.628906 2.671875 -6.984375 C 2.171875 -6.347656 1.921875 -5.472656 1.921875 -4.359375 C 1.921875 -3.265625 2.171875 -2.394531 2.671875 -1.75 C 3.179688 -1.113281 3.867188 -0.796875 4.734375 -0.796875 C 5.585938 -0.796875 6.265625 -1.113281 6.765625 -1.75 C 7.273438 -2.394531 7.53125 -3.265625 7.53125 -4.359375 C 7.53125 -5.472656 7.273438 -6.347656 6.765625 -6.984375 C 6.265625 -7.628906 5.585938 -7.953125 4.734375 -7.953125 Z M 4.734375 -8.90625 C 5.953125 -8.90625 6.925781 -8.492188 7.65625 -7.671875 C 8.394531 -6.847656 8.765625 -5.742188 8.765625 -4.359375 C 8.765625 -2.984375 8.394531 -1.882812 7.65625 -1.0625 C 6.925781 -0.238281 5.953125 0.171875 4.734375 0.171875 C 3.503906 0.171875 2.519531 -0.238281 1.78125 -1.0625 C 1.039062 -1.882812 0.671875 -2.984375 0.671875 -4.359375 C 0.671875 -5.742188 1.039062 -6.847656 1.78125 -7.671875 C 2.519531 -8.492188 3.503906 -8.90625 4.734375 -8.90625 Z M 4.734375 -8.90625 "/>
</symbol>
<symbol overflow="visible" id="glyph0-2">
<path style="stroke:none;" d="M 1.171875 -8.75 L 2.765625 -8.75 L 6.65625 -1.4375 L 6.65625 -8.75 L 7.796875 -8.75 L 7.796875 0 L 6.203125 0 L 2.328125 -7.3125 L 2.328125 0 L 1.171875 0 Z M 1.171875 -8.75 "/>
</symbol>
<symbol overflow="visible" id="glyph0-3">
<path style="stroke:none;" d="M 1.171875 -8.75 L 2.359375 -8.75 L 2.359375 -5.15625 L 6.65625 -5.15625 L 6.65625 -8.75 L 7.84375 -8.75 L 7.84375 0 L 6.65625 0 L 6.65625 -4.171875 L 2.359375 -4.171875 L 2.359375 0 L 1.171875 0 Z M 1.171875 -8.75 "/>
</symbol>
</g>
</defs>
<g id="surface51869">
<rect x="0" y="0" width="300" height="300" style="fill:rgb(100%,100%,100%);fill-opacity:1;stroke:none;"/>
<path style="fill:none;stroke-width:1.2;stroke-linecap:butt;stroke-linejoin:miter;stroke:rgb(0%,0%,0%);stroke-opacity:1;stroke-miterlimit:10;" d="M 246.273438 214.097656 L 254.132812 202.074219 "/>
<path style="fill:none;stroke-width:1.2;stroke-linecap:butt;stroke-linejoin:miter;stroke:rgb(100%,0%,0%);stroke-opacity:1;stroke-miterlimit:10;" d="M 254.132812 202.074219 L 261.996094 190.050781 "/>
<path style="fill:none;stroke-width:1.2;stroke-linecap:butt;stroke-linejoin:miter;stroke:rgb(100%,0%,0%);stroke-opacity:1;stroke-miterlimit:10;" d="M 261.996094 190.050781 L 255.511719 177.230469 "/>
<path style="fill:none;stroke-width:1.2;stroke-linecap:butt;stroke-linejoin:miter;stroke:rgb(0%,0%,0%);stroke-opacity:1;stroke-miterlimit:10;" d="M 255.511719 177.230469 L 249.027344 164.410156 "/>
<path style=" stroke:none;fill-rule:nonzero;fill:rgb(100%,100%,100%);fill-opacity:1;" d="M 256.996094 183.050781 L 266.996094 183.050781 L 266.996094 197.050781 L 256.996094 197.050781 Z M 256.996094 183.050781 "/>
<g style="fill:rgb(100%,0%,0%);fill-opacity:1;">
  <use xlink:href="#glyph0-1" x="256.996094" y="194.189453"/>
</g>
<path style="fill:none;stroke-width:1.2;stroke-linecap:butt;stroke-linejoin:miter;stroke:rgb(0%,0%,0%);stroke-opacity:1;stroke-miterlimit:10;" d="M 249.027344 164.410156 L 220.339844 162.820312 "/>
<path style="fill:none;stroke-width:1.2;stroke-linecap:butt;stroke-linejoin:miter;stroke:rgb(0%,0%,0%);stroke-opacity:1;stroke-miterlimit:10;" d="M 246.535156 157.5 L 223.585938 156.230469 "/>
<path style="fill:none;stroke-width:1.2;stroke-linecap:butt;stroke-linejoin:miter;stroke:rgb(0%,0%,0%);stroke-opacity:1;stroke-miterlimit:10;" d="M 264.75 140.363281 L 249.027344 164.410156 "/>
<path style="fill:none;stroke-width:1.2;stroke-linecap:butt;stroke-linejoin:miter;stroke:rgb(0%,0%,0%);stroke-opacity:1;stroke-miterlimit:10;" d="M 220.339844 162.820312 L 207.375 137.179688 "/>
<path style="fill:none;stroke-width:1.2;stroke-linecap:butt;stroke-linejoin:miter;stroke:rgb(0%,0%,0%);stroke-opacity:1;stroke-miterlimit:10;" d="M 207.375 137.179688 L 178.6875 135.589844 "/>
<path style="fill:none;stroke-width:1.2;stroke-linecap:butt;stroke-linejoin:miter;stroke:rgb(0%,0%,0%);stroke-opacity:1;stroke-miterlimit:10;" d="M 204.878906 130.269531 L 181.929688 129 "/>
<path style="fill:none;stroke-width:1.2;stroke-linecap:butt;stroke-linejoin:miter;stroke:rgb(0%,0%,0%);stroke-opacity:1;stroke-miterlimit:10;" d="M 223.097656 113.132812 L 207.375 137.179688 "/>
<path style="fill:none;stroke-width:1.2;stroke-linecap:butt;stroke-linejoin:miter;stroke:rgb(0%,0%,0%);stroke-opacity:1;stroke-miterlimit:10;" d="M 178.6875 135.589844 L 165.722656 109.949219 "/>
<path style="fill:none;stroke-width:1;stroke-linecap:butt;stroke-linejoin:miter;stroke:rgb(0%,0%,0%);stroke-opacity:1;stroke-miterlimit:10;" d="M 162.964844 159.636719 L 162.964844 159.636719 M 165.019531 157.449219 L 164.144531 156.878906 M 167.070312 155.261719 L 165.328125 154.121094 M 169.125 153.074219 L 166.507812 151.363281 M 171.179688 150.886719 L 167.6875 148.605469 M 173.230469 148.699219 L 168.867188 145.847656 M 175.285156 146.511719 L 170.046875 143.089844 M 177.335938 144.324219 L 171.226562 140.332031 M 179.390625 142.136719 L 172.40625 137.574219 M 181.441406 139.949219 L 173.585938 134.816406 M 182.929688 138.363281 L 174.445312 132.816406 "/>
<path style="fill:none;stroke-width:1.2;stroke-linecap:butt;stroke-linejoin:miter;stroke:rgb(0%,0%,0%);stroke-opacity:1;stroke-miterlimit:10;" d="M 165.722656 109.949219 L 181.441406 85.902344 "/>
<path style="fill:none;stroke-width:1.2;stroke-linecap:butt;stroke-linejoin:miter;stroke:rgb(0%,0%,0%);stroke-opacity:1;stroke-miterlimit:10;" d="M 172.953125 111.246094 L 185.527344 92.003906 "/>
<path style="fill:none;stroke-width:1.2;stroke-linecap:butt;stroke-linejoin:miter;stroke:rgb(0%,0%,0%);stroke-opacity:1;stroke-miterlimit:10;" d="M 181.441406 85.902344 L 195.785156 86.695312 "/>
<path style="fill:none;stroke-width:1.2;stroke-linecap:butt;stroke-linejoin:miter;stroke:rgb(0%,0%,100%);stroke-opacity:1;stroke-miterlimit:10;" d="M 195.785156 86.695312 L 210.128906 87.492188 "/>
<path style="fill:none;stroke-width:1.2;stroke-linecap:butt;stroke-linejoin:miter;stroke:rgb(0%,0%,100%);stroke-opacity:1;stroke-miterlimit:10;" d="M 210.128906 87.492188 L 216.613281 100.3125 "/>
<path style="fill:none;stroke-width:1.2;stroke-linecap:butt;stroke-linejoin:miter;stroke:rgb(0%,0%,0%);stroke-opacity:1;stroke-miterlimit:10;" d="M 216.613281 100.3125 L 223.097656 113.132812 "/>
<path style="fill:none;stroke-width:1.2;stroke-linecap:butt;stroke-linejoin:miter;stroke:rgb(0%,0%,100%);stroke-opacity:1;stroke-miterlimit:10;" d="M 205.394531 93.105469 L 210.582031 103.363281 "/>
<path style="fill:none;stroke-width:1.2;stroke-linecap:butt;stroke-linejoin:miter;stroke:rgb(0%,0%,0%);stroke-opacity:1;stroke-miterlimit:10;" d="M 210.582031 103.363281 L 215.765625 113.617188 "/>
<path style=" stroke:none;fill-rule:nonzero;fill:rgb(100%,100%,100%);fill-opacity:1;" d="M 206.128906 80.492188 L 215.128906 80.492188 L 215.128906 94.492188 L 206.128906 94.492188 Z M 206.128906 80.492188 "/>
<g style="fill:rgb(0%,0%,100%);fill-opacity:1;">
  <use xlink:href="#glyph0-2" x="206.128906" y="91.630859"/>
</g>
<path style="fill:none;stroke-width:1.2;stroke-linecap:butt;stroke-linejoin:miter;stroke:rgb(0%,0%,0%);stroke-opacity:1;stroke-miterlimit:10;" d="M 223.097656 113.132812 L 251.785156 114.722656 "/>
<path style="fill:none;stroke-width:1.2;stroke-linecap:butt;stroke-linejoin:miter;stroke:rgb(0%,0%,0%);stroke-opacity:1;stroke-miterlimit:10;" d="M 251.785156 114.722656 L 264.75 140.363281 "/>
<path style="fill:none;stroke-width:1.2;stroke-linecap:butt;stroke-linejoin:miter;stroke:rgb(0%,0%,0%);stroke-opacity:1;stroke-miterlimit:10;" d="M 247.046875 120.335938 L 257.421875 140.847656 "/>
<path style="fill:none;stroke-width:1.2;stroke-linecap:butt;stroke-linejoin:miter;stroke:rgb(0%,0%,0%);stroke-opacity:1;stroke-miterlimit:10;" d="M 162.964844 159.636719 L 134.277344 158.046875 "/>
<path style="fill:none;stroke-width:1.2;stroke-linecap:butt;stroke-linejoin:miter;stroke:rgb(0%,0%,0%);stroke-opacity:1;stroke-miterlimit:10;" d="M 162.964844 159.636719 L 169.449219 172.457031 "/>
<path style="fill:none;stroke-width:1.2;stroke-linecap:butt;stroke-linejoin:miter;stroke:rgb(100%,0%,0%);stroke-opacity:1;stroke-miterlimit:10;" d="M 169.449219 172.457031 L 175.933594 185.277344 "/>
<path style="fill:none;stroke-width:1;stroke-linecap:butt;stroke-linejoin:miter;stroke:rgb(0%,0%,0%);stroke-opacity:1;stroke-miterlimit:10;" d="M 134.277344 158.046875 L 134.277344 158.046875 M 133.410156 155.175781 L 132.480469 155.648438 M 132.542969 152.304688 L 130.683594 153.246094 M 131.675781 149.433594 L 128.882812 150.84375 M 130.808594 146.5625 L 127.085938 148.445312 M 129.9375 143.691406 L 125.285156 146.042969 M 129.070312 140.816406 L 123.488281 143.640625 M 128.203125 137.945312 L 121.6875 141.242188 M 127.335938 135.074219 L 119.890625 138.839844 M 126.464844 132.203125 L 118.09375 136.4375 M 125.835938 130.121094 L 116.789062 134.695312 "/>
<path style="fill:none;stroke-width:1.2;stroke-linecap:butt;stroke-linejoin:miter;stroke:rgb(0%,0%,100%);stroke-opacity:1;stroke-miterlimit:10;" d="M 118.558594 182.097656 L 126.417969 170.074219 "/>
<path style="fill:none;stroke-width:1.2;stroke-linecap:butt;stroke-linejoin:miter;stroke:rgb(0%,0%,0%);stroke-opacity:1;stroke-miterlimit:10;" d="M 126.417969 170.074219 L 134.277344 158.046875 "/>
<path style="fill:none;stroke-width:1;stroke-linecap:butt;stroke-linejoin:miter;stroke:rgb(0%,0%,0%);stroke-opacity:1;stroke-miterlimit:10;" d="M 92.625 130.816406 L 92.625 130.816406 M 95.546875 131.503906 L 95.605469 130.460938 M 98.46875 132.1875 L 98.582031 130.105469 M 101.386719 132.871094 L 101.5625 129.746094 M 104.308594 133.554688 L 104.539062 129.390625 M 107.230469 134.238281 L 107.519531 129.03125 M 110.152344 134.921875 L 110.496094 128.675781 M 113.070312 135.605469 L 113.476562 128.320312 M 115.992188 136.292969 L 116.453125 127.960938 M 118.914062 136.976562 L 119.433594 127.605469 M 121.03125 137.472656 L 121.59375 127.347656 "/>
<path style="fill:none;stroke-width:1.2;stroke-linecap:butt;stroke-linejoin:miter;stroke:rgb(0%,0%,0%);stroke-opacity:1;stroke-miterlimit:10;" d="M 92.625 130.816406 L 76.902344 154.867188 "/>
<path style="fill:none;stroke-width:1.2;stroke-linecap:butt;stroke-linejoin:miter;stroke:rgb(0%,0%,0%);stroke-opacity:1;stroke-miterlimit:10;" d="M 98.867188 145.300781 L 92.625 130.816406 "/>
<path style="fill:none;stroke-width:1.2;stroke-linecap:butt;stroke-linejoin:miter;stroke:rgb(0%,0%,0%);stroke-opacity:1;stroke-miterlimit:10;" d="M 76.902344 154.867188 L 89.871094 180.507812 "/>
<path style="fill:none;stroke-width:1.2;stroke-linecap:butt;stroke-linejoin:miter;stroke:rgb(0%,0%,0%);stroke-opacity:1;stroke-miterlimit:10;" d="M 89.871094 180.507812 L 104.214844 181.300781 "/>
<path style="fill:none;stroke-width:1.2;stroke-linecap:butt;stroke-linejoin:miter;stroke:rgb(0%,0%,100%);stroke-opacity:1;stroke-miterlimit:10;" d="M 104.214844 181.300781 L 118.558594 182.097656 "/>
<path style="fill:none;stroke-width:1.2;stroke-linecap:butt;stroke-linejoin:miter;stroke:rgb(0%,0%,100%);stroke-opacity:1;stroke-miterlimit:10;" d="M 118.558594 182.097656 L 114.574219 175.292969 "/>
<path style="fill:none;stroke-width:1.2;stroke-linecap:butt;stroke-linejoin:miter;stroke:rgb(0%,0%,0%);stroke-opacity:1;stroke-miterlimit:10;" d="M 114.574219 175.292969 L 110.589844 168.484375 "/>
<path style=" stroke:none;fill-rule:nonzero;fill:rgb(100%,100%,100%);fill-opacity:1;" d="M 114.558594 175.097656 L 123.558594 175.097656 L 123.558594 189.097656 L 114.558594 189.097656 Z M 114.558594 175.097656 "/>
<g style="fill:rgb(0%,0%,100%);fill-opacity:1;">
  <use xlink:href="#glyph0-2" x="114.558594" y="186.236328"/>
</g>
<path style="fill:none;stroke-width:1.2;stroke-linecap:butt;stroke-linejoin:miter;stroke:rgb(0%,0%,0%);stroke-opacity:1;stroke-miterlimit:10;" d="M 110.589844 168.484375 L 98.867188 145.300781 "/>
<path style="fill:none;stroke-width:1;stroke-linecap:butt;stroke-linejoin:miter;stroke:rgb(0%,0%,0%);stroke-opacity:1;stroke-miterlimit:10;" d="M 98.867188 145.300781 L 98.867188 145.300781 M 95.871094 145.476562 L 95.964844 146.058594 M 92.875 145.648438 L 93.058594 146.8125 M 89.882812 145.820312 L 90.15625 147.570312 M 86.886719 145.992188 L 87.253906 148.324219 M 83.890625 146.164062 L 84.351562 149.082031 M 80.898438 146.339844 L 81.449219 149.835938 M 77.902344 146.511719 L 78.542969 150.59375 M 74.90625 146.683594 L 75.640625 151.347656 M 71.910156 146.855469 L 72.738281 152.105469 M 68.917969 147.027344 L 69.835938 152.863281 M 65.921875 147.203125 L 66.929688 153.617188 M 62.925781 147.375 L 64.027344 154.375 M 59.929688 147.546875 L 61.125 155.128906 M 56.9375 147.71875 L 58.222656 155.886719 M 53.941406 147.890625 L 55.320312 156.640625 M 50.945312 148.066406 L 52.414062 157.398438 M 47.953125 148.238281 L 49.511719 158.152344 M 47.429688 148.269531 L 49.003906 158.285156 "/>
<path style="fill:none;stroke-width:1.2;stroke-linecap:butt;stroke-linejoin:miter;stroke:rgb(0%,0%,0%);stroke-opacity:1;stroke-miterlimit:10;" d="M 51.234375 151.75 L 38.265625 126.113281 "/>
<path style="fill:none;stroke-width:1.2;stroke-linecap:butt;stroke-linejoin:miter;stroke:rgb(0%,0%,0%);stroke-opacity:1;stroke-miterlimit:10;" d="M 45.199219 154.800781 L 32.234375 129.164062 "/>
<path style=" stroke:none;fill-rule:nonzero;fill:rgb(100%,100%,100%);fill-opacity:1;" d="M 166.933594 178.277344 L 185.933594 178.277344 L 185.933594 192.277344 L 166.933594 192.277344 Z M 166.933594 178.277344 "/>
<g style="fill:rgb(100%,0%,0%);fill-opacity:1;">
  <use xlink:href="#glyph0-1" x="166.933594" y="189.416016"/>
  <use xlink:href="#glyph0-3" x="176.378906" y="189.416016"/>
</g>
</g>
</svg>

<svg xmlns="http://www.w3.org/2000/svg" xmlns:xlink="http://www.w3.org/1999/xlink" width="300pt" height="300pt" viewBox="0 0 300 300"><defs><symbol overflow="visible"><path d="M.594 2.125V-8.47h6V2.126zm.672-.672h4.671V-7.78h-4.67zm0 0"/></symbol><symbol overflow="visible" id="a"><path d="M4.734-7.953c-.867 0-1.554.324-2.062.97-.5.635-.75 1.51-.75 2.624 0 1.094.25 1.965.75 2.61.508.637 1.195.953 2.062.953.852 0 1.532-.316 2.032-.953.507-.645.765-1.516.765-2.61 0-1.113-.257-1.988-.764-2.624-.5-.645-1.18-.97-2.032-.97zm0-.953c1.22 0 2.192.414 2.922 1.234.74.824 1.11 1.93 1.11 3.313 0 1.376-.37 2.477-1.11 3.298C6.926-.24 5.953.17 4.734.17c-1.23 0-2.214-.41-2.953-1.234C1.04-1.882.673-2.984.673-4.36c0-1.382.367-2.488 1.11-3.312.738-.82 1.722-1.234 2.952-1.234zm0 0"/></symbol><symbol overflow="visible" id="b"><path d="M1.172-8.75h1.594l3.89 7.313V-8.75h1.14V0H6.204L2.328-7.313V0H1.172zm0 0"/></symbol><symbol overflow="visible" id="c"><path d="M1.172-8.75H2.36v3.594h4.296V-8.75h1.188V0H6.656v-4.172H2.36V0H1.17zm0 0"/></symbol></defs><g><path fill="#fff" d="M0 0h300v300H0z"/><path d="M246.273 214.098l7.86-12.024" stroke-width="1.2" stroke="#000" stroke-miterlimit="10" fill="none"/><path d="M254.133 202.074l7.863-12.023M261.996 190.05l-6.484-12.82" stroke-width="1.2" stroke="#f00" stroke-miterlimit="10" fill="none"/><path d="M255.512 177.23l-6.485-12.82" stroke-width="1.2" stroke="#000" stroke-miterlimit="10" fill="none"/><path d="M256.996 183.05h10v14h-10zm0 0" fill="#fff"/><use xlink:href="#a" x="256.996" y="194.189" fill="#f00"/><path d="M249.027 164.41l-28.687-1.59M246.535 157.5l-22.95-1.27M264.75 140.363l-15.723 24.047M220.34 162.82l-12.965-25.64M207.375 137.18l-28.688-1.59M204.88 130.27L181.93 129M223.098 113.133l-15.723 24.047M178.688 135.59l-12.965-25.64" stroke-width="1.2" stroke="#000" stroke-miterlimit="10" fill="none"/><path d="M162.965 159.637m2.055-2.188l-.875-.57m2.925-1.618l-1.742-1.14m3.797-1.048l-2.617-1.71m4.672-.477l-3.493-2.282m5.543.094l-4.363-2.852m6.418.664l-5.238-3.422m7.29 1.234l-6.11-3.992m8.164 1.805l-6.984-4.563m9.035 2.375l-7.854-5.134m9.344 3.547l-8.485-5.547" stroke="#000" stroke-miterlimit="10" fill="none"/><path d="M165.723 109.95L181.44 85.9M172.953 111.246l12.574-19.242M181.44 85.902l14.345.793" stroke-width="1.2" stroke="#000" stroke-miterlimit="10" fill="none"/><path d="M195.785 86.695l14.344.797M210.13 87.492l6.483 12.82" stroke-width="1.2" stroke="#00f" stroke-miterlimit="10" fill="none"/><path d="M216.613 100.313l6.485 12.82" stroke-width="1.2" stroke="#000" stroke-miterlimit="10" fill="none"/><path d="M205.395 93.105l5.187 10.258" stroke-width="1.2" stroke="#00f" stroke-miterlimit="10" fill="none"/><path d="M210.582 103.363l5.184 10.254" stroke-width="1.2" stroke="#000" stroke-miterlimit="10" fill="none"/><path d="M206.13 80.492h9v14h-9zm0 0" fill="#fff"/><use xlink:href="#b" x="206.129" y="91.631" fill="#00f"/><path d="M223.098 113.133l28.687 1.59M251.785 114.723l12.965 25.64M247.047 120.336l10.375 20.512M162.965 159.637l-28.688-1.59M162.965 159.637l6.484 12.82" stroke-width="1.2" stroke="#000" stroke-miterlimit="10" fill="none"/><path d="M169.45 172.457l6.484 12.82" stroke-width="1.2" stroke="#f00" stroke-miterlimit="10" fill="none"/><path d="M134.277 158.047m-.867-2.87l-.93.47m.063-3.342l-1.86.94m.993-3.81l-2.793 1.41m1.926-4.282l-3.724 1.882m2.852-4.754l-4.653 2.353m3.785-5.227l-5.582 2.825m4.715-5.695l-6.516 3.297m5.65-6.168l-7.446 3.766m6.575-6.637l-8.37 4.234m7.74-6.316l-9.046 4.575" stroke="#000" stroke-miterlimit="10" fill="none"/><path d="M118.56 182.098l7.858-12.024" stroke-width="1.2" stroke="#00f" stroke-miterlimit="10" fill="none"/><path d="M126.418 170.074l7.86-12.027" stroke-width="1.2" stroke="#000" stroke-miterlimit="10" fill="none"/><path d="M92.625 130.816m2.922.688l.058-1.043m2.864 1.727l.112-2.082m2.805 2.766l.175-3.124m2.747 3.81l.23-4.165m2.69 4.848l.29-5.207m2.632 5.892l.344-6.246m2.574 6.93l.407-7.286m2.515 7.973l.46-8.332m2.462 9.017l.52-9.372m1.597 9.868l.564-10.125" stroke="#000" stroke-miterlimit="10" fill="none"/><path d="M92.625 130.816l-15.723 24.05M98.867 145.3l-6.242-14.484M76.902 154.867l12.97 25.64M89.87 180.508l14.345.793" stroke-width="1.2" stroke="#000" stroke-miterlimit="10" fill="none"/><path d="M104.215 181.3l14.344.798M118.56 182.098l-3.986-6.805" stroke-width="1.2" stroke="#00f" stroke-miterlimit="10" fill="none"/><path d="M114.574 175.293l-3.984-6.81" stroke-width="1.2" stroke="#000" stroke-miterlimit="10" fill="none"/><path d="M114.56 175.098h9v14h-9zm0 0" fill="#fff"/><use xlink:href="#b" x="114.559" y="186.236" fill="#00f"/><path d="M110.59 168.484L98.867 145.3" stroke-width="1.2" stroke="#000" stroke-miterlimit="10" fill="none"/><path d="M98.867 145.3m-2.996.177l.095.582m-3.09-.412l.184 1.165m-3.177-.993l.273 1.75m-3.27-1.578l.368 2.332m-3.363-2.16l.462 2.918m-3.454-2.742l.55 3.496m-3.546-3.324l.64 4.082m-3.636-3.91l.735 4.664m-3.73-4.493l.828 5.25m-3.82-5.078l.918 5.836m-3.914-5.66l1.008 6.414m-4.004-6.242l1.1 7m-4.096-6.828l1.195 7.582m-4.188-7.41l1.286 8.167m-4.282-7.996l1.38 8.75m-4.375-8.574l1.47 9.332m-4.462-9.16l1.56 9.914m-2.083-9.882l1.574 10.015" stroke="#000" stroke-miterlimit="10" fill="none"/><path d="M51.234 151.75l-12.968-25.637M45.2 154.8l-12.966-25.636" stroke-width="1.2" stroke="#000" stroke-miterlimit="10" fill="none"/><path d="M166.934 178.277h19v14h-19zm0 0" fill="#fff"/><g fill="#f00"><use xlink:href="#a" x="166.934" y="189.416"/><use xlink:href="#c" x="176.379" y="189.416"/></g></g></svg>
